X:15728
T:Sonderh\o{}ning
R:Sonderh\o{}ning
O:Denmark
N:Or maybe from Sk\aa{}ne 
M:4/4
K:G
B2d2 A2B2 | G2AG F3D | \
G2G2 A2A2 | B2GB (A4 | A2) B2A2B2 | G2AG F2D2 |\
GABc d2F2 | G2G2 G4 :|
|:\
A2B2A2c2 | d2B2B4 | A2B2ABc2 | d2B2 B3d |\
c2B2A2B2 | G2G2 F3D | GA Bc d2F2 | G2G2G2 :|
